X:156
T:Hail To The Chief. - Regulation Fife Calls 1776-1856, #10 *
B:American Veteran Fifer, Regulation Fife Calls 1776-1856, #10
M:C
L:1/8
Q:1/4=90
K:D
A2 B>c d2 c>B|A>B AF E2 D2|A2 d>e f2 e>d|e>d e>f edcB|A2 B>c d2 c>B|A>B AF E2 D2|A2 d>c BdAF|
A2 d>d d2 z2||f2 f>f f2 g>f|edef e2 A2|f2 f>f f2 e>d|e2 a>b agfe|d2 d>cB>c dB|A2 d>e f2 e>d|B>c dB AdAF|A2 d>d d2 z2||
%original had too few notes in 4th bar of first staff.  16th notes in 4th bar were converted to eighth notes.
% Original first staff was as follows:
%A2 B>c d2 c>B|A>B AF E2 D2|A2 d>e f2 e>d|e>d e>f e/d/c/B/|A2 B>c d2 c>B|A>B AF E2 D2|A2 d>c BdAF|
